!!!OTL: 262. Das Vaterhaus.
!!!COM: Volksweise
!!!ARE: Europa, Mitteleuropa, Deutschland, Rheinland, Allenbach
!!!SCT: B0262
!!!TXL: @@DE
!!!YEM: Copyright 1995, estate of Helmut Schaffrath.
**kern	**text
*ICvox	*
*Ivox	*
*M4/4	*
*k[f#c#]	*
*D:	*
{4a	Jch
=1	=1
8aL	weiß
8bJ	.
4a	mir
4f#	et-
4dd	-was
=2	=2
2dd	Lie-
16eeqqL	.
16ddqqJ	.
4cc#}	-bes
{8eL	auf
8f#J	.
=3	=3
8gL	Got-
8f#J	.
4g	-tes
8bL	wei-
8aJ	.
4g	-ter
=4	=4
2f#	Welt,
4r}	.
{4a	das
=5	=5
8aL	ſtets
8bJ	.
4a	in
4f#	mei-
4dd	-nem
=6	=6
2dd	Her-
16eeqqL	.
16ddqqJ	.
4cc#}	-ʒen
{8eL	den
8f#J	.
=7	=7
8gL	er-
8f#J	.
4g	-ſten
8bL	Platʒ
8aJ	.
4g	be-
=8	=8
2f#	-hält.
4r}	.
{4dd	Kein
=9	=9
4cc#	Freund
4b	und
(8gL	auch
8a	.
8cc#J)	.
8b/	kein
=10	=10
4b	Lieb-
4a	-chen
4r}	.
{4a	ver-
=11	=11
(4g	-drän-
16f#qqL	.
16gqqJ	.
8b/)	.
8a	-get
4e	es
4g	da-
=12	=12
2f#	-raus
4r}	.
{4a	das
=13	=13
4dd	iſt
4cc#	im
(8.eeL	Va-
16ddJ	.
16cc#L	.
16bJ)	.
8a	-ter-
=14	=14
4dd	-lan-
4b	-de
4r}	.
{4g	das
=15	=15
(8eL	theu-
8f#	.
8gJ)	.
8b/	-re
(8aL^	Va-
16g	.
16f#J)	.
4e	-ter-
=16	=16
2d	-haus.
4r}	.
==	==
!!!AGN: Stimmungs - Lied, Sehnsucht, Heimat, Heimweh
!!!GTL: Trauerlieder (Elegien) und Stimmungslieder
!!!ONB: ESAC (Essen Associative Code) Database: BOEHME
!!!AMT: simple quadruple
!!!AIN: vox
!!!EED: Helmut Schaffrath
!!!EEV: 1.0
!!Volksweiſe am Rhein, aufgeʒ. ʒu Allenbach (Hochwald).
!!@@COMMENT:"Text von Fr. Gumbert. Mit deſſen beliebten Kompoſition vor 1860 entſtanden. Die hier
!!ſtehende Weiſe hat das Volk am Rhein ſich ſelbſt gebildet: ſie iſt Verʒerrung der Gumbertſchen."
!!@@END:
!!!Text: Fr. Gumbert
!!!URL-scan: https://archive.org/details/BoehmeVtLieder1895/page/n227/mode/2up
!!!ENC: Anna Maria Matuszewska
!!!EEV: 2024/03/07
*-	*-
